X:1
T:Title
%%score { 1 | ( 2 3 ) }
L:1/8
M:3/4
K:Bb
V:1 treble nm="Grand Piano"
V:2 bass 
V:3 bass 
V:1
 z2 z2[Q:1/4=100] D>E | [DF]3 d c>d | [DB]2 D2 F>B | [EA]3 E A>G |[M:2/4] [DF]4 |[M:1/4] D>E | %6
[M:3/4] [DF]3 d c>d | [DB]2 D2 F>B | [EA]3 F A>c |[M:2/4] [DB]4 |[M:1/4] [DB]>[DB] | %11
[M:3/4] [GB]3 [Gc] [GB]>[B,EG] | [B,DF]2 [F,B,D]2 [DF]>[DB] | A3 c G>A |[M:2/4] [EG]2 [DF]2 | %15
[M:1/4] [DB]>[DB] |[M:3/4] [GB]3 [Gc] [GB]>[B,EG] | [B,DF]2 [DB]2 [Fd]>[_Ad] | [Ge]3 c A>F | %19
[M:2/4] [DB]4 |] %20
V:2
 z2 z2 B,>C | z2 B,2[K:treble] z2 | (3B,,D,F, B,2 D>D | (3F,,A,,C, z[K:treble] C F>E | %4
[M:2/4][K:bass] (3B,,D,F, B,,2 |[M:1/4] B,>C |[M:3/4] z2 B,2[K:treble] z2 | (3B,,D,F, B,2 D>D | %8
 (3F,,A,,C, z E E>E |[M:2/4] (3B,,D,F, B,,2 |[M:1/4] [B,,F,]>[B,,F,] |[M:3/4] E,3 E, E,>E, | %12
 B,,2 B,,2 [B,,B,]>[B,,B,] | [F,CE]3 [F,A,E] [F,A,E]>[F,CE] |[M:2/4] [B,,B,]2 [B,,B,]2 | %15
[M:1/4] [B,,F,]>[B,,F,] |[M:3/4] E,3 E, E,>E, | B,,2 [B,,F,]2 [B,,B,]>[B,,B,] | %18
 [E,B,]3 [E,G,E] [F,E]>[F,E] |[M:2/4] [B,,F,]4 |] %20
V:3
 x6 | (3B,,D,F, z[K:treble] F E>F | x6 | z2 F,2[K:treble] z2 |[M:2/4][K:bass] x4 |[M:1/4] x2 | %6
[M:3/4] (3B,,D,F, z[K:treble] F E>F | x6 | z2 F,2 z2 |[M:2/4] x4 |[M:1/4] x2 |[M:3/4] x6 | x6 | %13
 x6 |[M:2/4] x4 |[M:1/4] x2 |[M:3/4] x6 | x6 | x6 |[M:2/4] x4 |] %20

